docs/assets/images/envelope-receipt.svg

<svg xmlns="http://www.w3.org/2000/svg" width="68" height="68" fill="none" viewBox="0 0 68 68"><path fill="#D4F5FD" d="M17.1006 40.3966C17.1645 40.9547 17.201 41.5588 17.201 42.2183C17.201 43.7079 16.8129 45.1468 16.1462 46.3367C15.1417 48.1353 13.4978 49.3713 11.5892 49.3805C10.9179 49.3805 10.2147 49.2329 9.49328 48.9055C5.37456 47.0146 7.32889 40.9224 7.32889 38.2752C7.32889 35.628 5.68506 32.9301 5.68506 32.9301C5.68506 32.9301 6.51154 33.0315 7.68962 33.8202C9.01839 34.7056 9.47501 35.4159 9.47501 35.4159V31.7172L12.8038 34.6365L12.9499 30.9839L16.0367 33.8986C16.0275 35.1714 16.2787 36.2598 16.5526 37.4358C16.7581 38.3352 16.9773 39.2852 17.1006 40.4059V40.3966Z"/><path fill="#84EAF4" d="M26.8997 35.0514C26.8769 35.222 26.854 35.3927 26.8266 35.5679C26.644 36.7531 26.4476 37.8185 26.2559 38.8146C25.991 40.1751 25.7307 41.3973 25.5161 42.5779C25.1189 44.7593 24.8769 46.8116 25.0641 49.3757H25.0184H11.5938C13.5024 49.3665 15.1463 48.1305 16.1508 46.3319C16.8175 45.1421 17.2056 43.7032 17.2056 42.2136C17.2056 41.5541 17.1691 40.9545 17.1052 40.3919C16.9864 39.2712 16.7673 38.3212 16.5572 37.4219C16.2878 36.2458 16.0321 35.1575 16.0412 33.8846C16.0412 33.2758 16.1097 32.6209 16.2604 31.8923C17.0093 28.2996 19.3289 25.7816 22.2604 25.9983C26.0641 26.2751 27.5024 30.2182 26.8997 35.0468V35.0514Z"/><path fill="#D4F5FD" d="M26.9 35.0518C27.5028 30.2232 26.0644 26.2801 22.2607 26.0034H35.6352C35.6489 26.1648 35.658 26.3309 35.6717 26.4969C36.1009 31.6621 38.658 39.0042 38.9228 44.5661C38.9457 45.0549 38.9502 45.5299 38.9365 45.9865C38.8589 48.3524 38.4343 50.7321 37.6169 52.6875C36.4936 55.3716 34.6352 57.2671 31.9183 57.2671C31.8726 57.2671 31.8224 57.2671 31.7722 57.2671C28.2105 57.1794 25.4343 54.4723 25.0598 49.4546C25.0598 49.4316 25.0598 49.4039 25.0553 49.3808C24.8726 46.8166 25.1101 44.7644 25.5073 42.583C25.7219 41.4023 25.9822 40.1802 26.247 38.8197C26.4434 37.8282 26.6397 36.7582 26.8178 35.573C26.8452 35.3977 26.868 35.2271 26.8909 35.0565L26.9 35.0518Z"/><path fill="#D4F5FD" d="M38.9274 44.5612C38.6626 38.9994 36.1055 31.6573 35.6762 26.492C35.6626 26.326 35.6489 26.16 35.6397 25.9986C35.0324 17.7249 36.5712 11.605 36.7493 10.9363L38.1922 14.3952L41.3155 11.1254L43.1055 14.3952L46.1055 10.6919L47.7676 13.8925L50.4297 10.8579L51.9274 14.3952C51.9274 14.3952 52.8224 13.6066 53.8132 12.8087C55.0872 11.7849 55.9731 11.6973 55.9731 11.6973C55.9731 11.6973 55.2059 13.8141 54.8863 19.8556C54.4251 28.5535 58.7402 38.1277 58.2927 46.0785C57.6671 57.2622 51.3657 57.2991 51.3657 57.2991H31.9365V57.2576C34.6534 57.2576 36.5119 55.3621 37.6352 52.6781C38.4525 50.7226 38.8772 48.3429 38.9548 45.9771C38.9685 45.5205 38.9639 45.0455 38.9411 44.5566L38.9274 44.5612Z"/><path stroke="#002140" stroke-linecap="round" stroke-linejoin="round" d="M36.7629 10.8765C36.7629 10.8765 36.7583 10.8949 36.7446 10.9364C36.5665 11.6051 35.0277 17.725 35.635 25.9987C35.6487 26.1601 35.6578 26.3261 35.6715 26.4921C36.1008 31.6574 38.6578 38.9994 38.9227 44.5613C38.9455 45.0502 38.9501 45.5252 38.9364 45.9818C38.8587 48.3476 38.4341 50.7273 37.6167 52.6828C36.4934 55.3669 34.635 57.2623 31.9181 57.2623C31.8724 57.2623 31.8222 57.2623 31.772 57.2623C28.2103 57.1747 25.4341 54.4675 25.0597 49.4499C25.0597 49.4268 25.0597 49.3991 25.0551 49.3761C24.8724 46.8119 25.1099 44.7596 25.5071 42.5782C25.7218 41.3976 25.982 40.1755 26.2469 38.815C26.4432 37.8234 26.6396 36.7535 26.8176 35.5682C26.845 35.393 26.8679 35.2224 26.8907 35.0517C27.4934 30.2231 26.0551 26.28 22.2514 26.0033C19.3154 25.7865 16.9957 28.3046 16.2514 31.8972C16.1008 32.6259 16.0368 33.2762 16.0323 33.8895C16.0231 35.1624 16.2743 36.2508 16.5482 37.4268C16.7537 38.3261 16.9729 39.2762 17.0962 40.3968C17.1601 40.9549 17.1966 41.559 17.1966 42.2185C17.1966 43.7081 16.8085 45.147 16.1419 46.3369C15.1373 48.1355 13.4934 49.3715 11.5848 49.3807C10.9135 49.3807 10.2103 49.2331 9.48888 48.9057C5.37016 47.0148 7.3245 40.9226 7.3245 38.2754C7.3245 35.6282 5.68066 32.9303 5.68066 32.9303C5.68066 32.9303 6.50715 33.0317 7.68523 33.8204C9.014 34.7058 9.47062 35.416 9.47062 35.416V31.7174L12.7994 34.6366L12.9455 30.9841L16.0323 33.8988"/><path stroke="#002140" stroke-linecap="round" stroke-linejoin="round" d="M22.2607 26.0034H35.6352H35.6763"/><path stroke="#002140" stroke-linecap="round" stroke-linejoin="round" d="M11.5894 49.3804H25.0186"/><path stroke="#002140" stroke-linecap="round" stroke-linejoin="round" d="M36.7354 10.9179L36.7445 10.9363L38.1875 14.3952L41.3108 11.1254L43.1007 14.3952L46.1007 10.6919L47.7628 13.8925L50.4249 10.8579L51.9226 14.3952C51.9226 14.3952 52.8176 13.6066 53.8085 12.8087C55.0824 11.7849 55.9683 11.6973 55.9683 11.6973C55.9683 11.6973 55.2012 13.8141 54.8815 19.8556C54.4203 28.5535 58.7354 38.1277 58.2879 46.0785C57.6624 57.2622 51.361 57.2991 51.361 57.2991H31.7856"/><path stroke="#002140" stroke-linecap="round" stroke-linejoin="round" d="M10.9229 37.4268H16.553"/><path stroke="#002140" stroke-linecap="round" stroke-linejoin="round" d="M10.2241 40.397H17.1008H17.11"/><path stroke="#002140" stroke-linecap="round" stroke-linejoin="round" d="M9.81787 43.3667H17.1101"/><path stroke="#002140" stroke-linecap="round" stroke-linejoin="round" d="M10.4707 46.3369H16.1465"/><path stroke="#002140" stroke-linecap="round" stroke-linejoin="round" d="M19.1738 35.0518H26.8999H26.9364"/><path stroke="#002140" stroke-linecap="round" stroke-linejoin="round" d="M20.1143 38.8149H26.2558H26.2604"/><path stroke="#002140" stroke-linecap="round" stroke-linejoin="round" d="M20.6851 42.5737H25.5115H25.5252"/><path stroke="#002140" stroke-linecap="round" stroke-linejoin="round" d="M19.2969 46.3369H25.0138"/><path stroke="#002140" stroke-linecap="round" stroke-linejoin="round" d="M19.626 31.293H26.9182"/><path stroke="#002140" stroke-linecap="round" stroke-linejoin="round" d="M29.9453 32.3813H36.5161"/><path stroke="#002140" stroke-linecap="round" stroke-linejoin="round" d="M29.7402 36.4443H37.3704"/><path stroke="#002140" stroke-linecap="round" stroke-linejoin="round" d="M29.2788 40.5029H38.2697"/><path stroke="#002140" stroke-linecap="round" stroke-linejoin="round" d="M29.1279 52.6826H37.6211"/><path stroke="#002140" stroke-linecap="round" stroke-linejoin="round" d="M28.6211 44.561H38.927H38.9499"/><path stroke="#002140" stroke-linecap="round" stroke-linejoin="round" d="M28.3701 48.624H38.6989"/><path stroke="#002140" stroke-linecap="round" stroke-linejoin="round" d="M29.2881 28.3228H35.8497"/><path stroke="#002140" stroke-linecap="round" stroke-linejoin="round" d="M41.4434 36.4673H54.247"/><path stroke="#002140" stroke-linecap="round" stroke-linejoin="round" d="M42.1919 40.7427H54.9955"/><path stroke="#002140" stroke-linecap="round" stroke-linejoin="round" d="M42.6943 45.0176H55.498"/><path stroke="#002140" stroke-linecap="round" stroke-linejoin="round" d="M42.1919 49.293H54.9955"/><path stroke="#002140" stroke-linecap="round" stroke-linejoin="round" d="M40.3608 53.5684H53.1645"/><path fill="#4ED7DE" d="M53 30.4444C53 31.6111 52.2241 32 51.0572 32C49.8904 32 47.7932 32 45.9998 32C44.2064 32 42.1834 32 40.9447 32C39.706 32 39 31.6111 39 30.4444C39 27.3333 42.5005 25 45.9998 25C49.4991 25 53 27.3333 53 30.4444Z"/><path fill="#4ED7DE" d="M49.1125 21.1111C49.1125 22.8293 47.7194 24.2222 46.001 24.2222C44.2825 24.2222 42.8894 22.8293 42.8894 21.1111C42.8894 19.3929 44.2825 18 46.001 18C47.7194 18 49.1125 19.3929 49.1125 21.1111Z"/><path stroke="#002140" d="M53 30.4444C53 31.6111 52.2241 32 51.0572 32C49.8904 32 47.7932 32 45.9998 32C44.2064 32 42.1834 32 40.9447 32C39.706 32 39 31.6111 39 30.4444C39 27.3333 42.5005 25 45.9998 25C49.4991 25 53 27.3333 53 30.4444Z"/><path stroke="#002140" d="M49.1125 21.1111C49.1125 22.8293 47.7194 24.2222 46.001 24.2222C44.2825 24.2222 42.8894 22.8293 42.8894 21.1111C42.8894 19.3929 44.2825 18 46.001 18C47.7194 18 49.1125 19.3929 49.1125 21.1111Z"/></svg>

<svg xmlns="http://www.w3.org/2000/svg" width="68" height="68" fill="none" viewBox="0 0 68 68"><path fill="#d4f5fd" d="M17.1 40.397c.064.558.101 1.162.101 1.821 0 1.49-.388 2.929-1.055 4.119-1.004 1.798-2.648 3.034-4.557 3.043a5 5 0 0 1-2.096-.474c-4.118-1.891-2.164-7.984-2.164-10.63 0-2.648-1.644-5.346-1.644-5.346s.827.102 2.005.89c1.328.886 1.785 1.596 1.785 1.596v-3.699l3.329 2.92.146-3.653 3.087 2.915c-.01 1.272.242 2.36.516 3.537.205.9.424 1.85.548 2.97z"/><path fill="#84eaf4" d="M26.9 35.051q-.034.255-.073.517a87 87 0 0 1-.571 3.247c-.265 1.36-.525 2.582-.74 3.763-.397 2.181-.64 4.234-.452 6.798h-13.47c1.908-.01 3.552-1.245 4.557-3.044a8.5 8.5 0 0 0 1.055-4.118c0-.66-.037-1.26-.1-1.822-.12-1.12-.339-2.07-.549-2.97-.27-1.176-.525-2.264-.516-3.537 0-.61.069-1.264.22-1.993.748-3.592 3.068-6.11 6-5.894 3.803.277 5.241 4.22 4.639 9.049z"/><path fill="#d4f5fd" d="M26.9 35.052c.603-4.829-.836-8.772-4.64-9.049h13.375c.014.162.023.328.037.494.429 5.165 2.986 12.507 3.25 18.07q.035.733.015 1.42c-.078 2.365-.503 4.745-1.32 6.7-1.123 2.685-2.982 4.58-5.699 4.58h-.146c-3.561-.088-6.338-2.795-6.712-7.812 0-.023 0-.051-.005-.074-.182-2.564.055-4.617.452-6.798.215-1.18.475-2.403.74-3.763a70 70 0 0 0 .57-3.247q.04-.261.074-.517z"/><path fill="#d4f5fd" d="M38.927 44.561c-.264-5.562-2.822-12.904-3.25-18.069q-.022-.25-.037-.493c-.608-8.274.931-14.394 1.11-15.063l1.442 3.46 3.124-3.27 1.79 3.27 3-3.704 1.662 3.2 2.662-3.034 1.497 3.537s.895-.788 1.886-1.586c1.274-1.024 2.16-1.112 2.16-1.112s-.767 2.117-1.087 8.159c-.46 8.697 3.854 18.272 3.407 26.222-.626 11.184-6.927 11.221-6.927 11.221h-19.43v-.041c2.717 0 4.576-1.896 5.7-4.58.816-1.955 1.241-4.335 1.319-6.7q.02-.688-.014-1.421z"/><path stroke="#002140" stroke-linecap="round" stroke-linejoin="round" d="m36.763 10.877-.018.06c-.178.668-1.717 6.788-1.11 15.062.014.161.023.327.037.493.429 5.165 2.986 12.507 3.25 18.07q.036.733.014 1.42c-.077 2.366-.502 4.745-1.32 6.7-1.123 2.685-2.981 4.58-5.698 4.58h-.146c-3.562-.087-6.338-2.794-6.712-7.812q.001-.036-.005-.074c-.183-2.564.055-4.616.452-6.798.215-1.18.475-2.403.74-3.763.196-.992.393-2.061.57-3.247q.04-.262.074-.516c.602-4.829-.836-8.772-4.64-9.049-2.936-.216-5.255 2.302-6 5.894-.15.729-.214 1.38-.219 1.992-.009 1.273.242 2.362.516 3.538.206.9.425 1.85.548 2.97.064.558.1 1.162.1 1.822a8.5 8.5 0 0 1-1.054 4.118c-1.005 1.798-2.649 3.034-4.557 3.044a5 5 0 0 1-2.096-.475c-4.119-1.891-2.165-7.983-2.165-10.63S5.682 32.93 5.682 32.93s.826.102 2.004.89c1.329.886 1.786 1.596 1.786 1.596v-3.699l3.328 2.92.146-3.653 3.087 2.915m6.227-7.896h13.416M11.59 49.38h13.429"/><path stroke="#002140" stroke-linecap="round" stroke-linejoin="round" d="m36.735 10.918.01.018 1.443 3.46 3.123-3.27 1.79 3.27 3-3.704 1.662 3.2 2.662-3.034 1.498 3.537s.895-.788 1.886-1.586c1.273-1.024 2.16-1.112 2.16-1.112s-.768 2.117-1.087 8.159c-.462 8.697 3.853 18.272 3.406 26.222C57.662 57.262 51.36 57.3 51.36 57.3H31.786M10.923 37.427h5.63m-6.329 2.97h6.886m-7.292 2.97h7.292m-6.64 2.97h5.676m3.028-11.285h7.762m-6.822 3.763h6.146m-5.575 3.759h4.84m-6.228 3.763h5.717m-5.388-15.044h7.292m3.027 1.088h6.571m-6.776 4.063h7.63m-8.091 4.059h8.99m-9.141 12.18h8.493m-9-8.122H38.95m-10.58 4.063H38.7m-9.412-20.301h6.562m5.593 8.144h12.804m-12.055 4.276h12.804m-12.302 4.275h12.804m-13.306 4.275h12.804M40.36 53.568h12.804"/><path fill="#4ed7de" d="M53 30.444C53 31.611 52.224 32 51.057 32H40.945C39.706 32 39 31.611 39 30.444 39 27.334 42.5 25 46 25s7 2.333 7 5.444m-3.887-9.333a3.111 3.111 0 1 1-6.223 0 3.111 3.111 0 0 1 6.222 0"/><path stroke="#002140" d="M53 30.444C53 31.611 52.224 32 51.057 32H40.945C39.706 32 39 31.611 39 30.444 39 27.334 42.5 25 46 25s7 2.333 7 5.444Zm-3.887-9.333a3.111 3.111 0 1 1-6.223 0 3.111 3.111 0 0 1 6.222 0Z"/></svg>
